assets/features/deploy.svg

<?xml version="1.0" encoding="UTF-8"?>
<svg width="16px" height="16px" viewBox="0 0 16 16" version="1.1" xmlns="http://www.w3.org/2000/svg" xmlns:xlink="http://www.w3.org/1999/xlink">
    <!-- Generator: Sketch 49.2 (51160) - http://www.bohemiancoding.com/sketch -->
    <title>Deployment</title>
    <desc>Created with Sketch.</desc>
    <defs></defs>
    <g id="deploy-16px" stroke="none" stroke-width="1" fill="none" fill-rule="evenodd">
        <g id="Group-2" transform="translate(3.468750, 1.031250)" fill="#689BFF">
            <path d="M2.63903418,13.5539053 L3.05082759,12.5555746 L6.04292241,12.5555746 L6.45471582,13.5539053 L2.63903418,13.5539053 Z M4.5625,6.75 C4.01021525,6.75 3.5625,6.30228475 3.5625,5.75 C3.5625,5.19771525 4.01021525,4.75 4.5625,4.75 C5.11478475,4.75 5.5625,5.19771525 5.5625,5.75 C5.5625,6.30228475 5.11478475,6.75 4.5625,6.75 Z M2.50621346,12.6834896 C2.25811884,12.7650092 2.07551792,12.8486426 1.96052478,12.931829 C1.77016719,13.0695344 1.26420512,13.557184 0.463612478,14.3775356 L0.109008493,14.7408913 L0.0741012954,14.2343808 C-0.0256939695,12.7863314 0.0185824827,11.7780189 0.215087053,11.1925923 C0.406746342,10.6216008 0.919460622,9.92241718 1.75328906,9.08171364 C1.66373237,8.40595518 1.61640531,7.69004823 1.61640531,6.95508249 C1.61640531,5.28829054 2.12728925,3.64198135 2.97467616,2.10415429 C3.2757767,1.55772083 3.60141506,1.060491 3.918847,0.639952422 C4.03826647,0.481743727 4.15012389,0.343268427 4.24285398,0.236860228 C4.28267175,0.191169156 4.31754831,0.153066332 4.34503166,0.125142798 C4.45610163,0.0122938817 4.44413767,0.0226553125 4.546875,0.0226553125 C4.64961233,0.0226553125 4.63764837,0.0122938817 4.74871834,0.125142798 C4.77620169,0.153066332 4.81107825,0.191169156 4.85089602,0.236860228 C4.94362611,0.343268427 5.05548353,0.481743727 5.174903,0.639952422 C5.49233494,1.060491 5.8179733,1.55772083 6.11907384,2.10415429 C6.96646075,3.64198135 7.47734469,5.28829054 7.47734469,6.95508249 C7.47734469,7.68998219 7.4300305,8.40589588 7.3404667,9.08171944 C8.17429174,9.9224204 8.6870041,10.6216021 8.87866295,11.1925923 C9.07516752,11.7780189 9.11944397,12.7863314 9.0196487,14.2343808 L8.98474151,14.7408913 L8.63013752,14.3775356 C7.82954488,13.557184 7.32358281,13.0695344 7.13322522,12.931829 C7.01823208,12.8486426 6.83563116,12.7650092 6.58753654,12.6834896 L7.13411845,14.0085947 L1.95963155,14.0085947 L2.50621346,12.6834896 Z M2.59947823,12.1799002 C2.26687637,11.4841014 2.00792689,10.6162414 1.83947911,9.64603152 C1.1914258,10.3309419 0.793632426,10.8978748 0.646141388,11.3372802 C0.495837631,11.7850653 0.444592597,12.5742787 0.497833318,13.6937081 C1.11281259,13.0717784 1.50731833,12.698491 1.69402246,12.5634285 C1.89029508,12.4214442 2.19062032,12.2954101 2.59947823,12.1799002 Z M7.25427694,9.64603791 C7.08586461,10.6160367 6.82695248,11.4838836 6.49426262,12.1798976 C6.9031252,12.2954082 7.20345346,12.4214431 7.39972754,12.5634285 C7.58643167,12.698491 7.98093741,13.0717784 8.59591668,13.6937081 C8.6491574,12.5742787 8.59791237,11.7850653 8.44760861,11.3372802 C8.30011803,10.8978761 7.90232668,10.3309454 7.25427694,9.64603791 Z M6.31523372,11.4375 L2.7784902,11.4375 C2.86756255,11.6752028 2.96403021,11.8970899 3.06730081,12.1008852 L6.02643535,12.1008852 C6.1297141,11.8970384 6.22617549,11.6751534 6.31523372,11.4375 Z M6.47501895,10.96875 C6.82362695,9.84281696 7.02265531,8.44105506 7.02265531,6.95508249 C7.02265531,5.37394375 6.53402649,3.79935102 5.7208409,2.32359209 C5.4305675,1.7968076 5.11676774,1.31765459 4.81199327,0.913884818 C4.71536467,0.7858698 4.62456801,0.672238653 4.546875,0.580688903 C4.46918199,0.672238653 4.37838533,0.7858698 4.28175673,0.913884818 C3.97698226,1.31765459 3.6631825,1.7968076 3.3729091,2.32359209 C2.55972351,3.79935102 2.07109469,5.37394375 2.07109469,6.95508249 C2.07109469,8.44144064 2.27026556,9.84322483 2.6187166,10.96875 L6.47501895,10.96875 Z" id="Combined-Shape"></path>
        </g>
    </g>
</svg>

<?xml version="1.0" encoding="UTF-8" standalone="no"?>
<svg
   xmlns:dc="http://purl.org/dc/elements/1.1/"
   xmlns:cc="http://creativecommons.org/ns#"
   xmlns:rdf="http://www.w3.org/1999/02/22-rdf-syntax-ns#"
   xmlns:svg="http://www.w3.org/2000/svg"
   xmlns="http://www.w3.org/2000/svg"
   xmlns:sodipodi="http://sodipodi.sourceforge.net/DTD/sodipodi-0.dtd"
   xmlns:inkscape="http://www.inkscape.org/namespaces/inkscape"
   width="16px"
   height="16px"
   viewBox="0 0 16 16"
   version="1.1"
   id="svg11"
   sodipodi:docname="deploy.svg"
   inkscape:version="0.92.3 (2405546, 2018-03-11)">
  <metadata
     id="metadata15">
    <rdf:RDF>
      <cc:Work
         rdf:about="">
        <dc:format>image/svg+xml</dc:format>
        <dc:type
           rdf:resource="http://purl.org/dc/dcmitype/StillImage" />
      </cc:Work>
    </rdf:RDF>
  </metadata>
  <sodipodi:namedview
     pagecolor="#ffffff"
     bordercolor="#666666"
     borderopacity="1"
     objecttolerance="10"
     gridtolerance="10"
     guidetolerance="10"
     inkscape:pageopacity="0"
     inkscape:pageshadow="2"
     inkscape:window-width="2560"
     inkscape:window-height="1346"
     id="namedview13"
     showgrid="false"
     inkscape:zoom="14.75"
     inkscape:cx="-3.8644068"
     inkscape:cy="8"
     inkscape:window-x="-11"
     inkscape:window-y="-11"
     inkscape:window-maximized="1"
     inkscape:current-layer="svg11" />
  <!-- Generator: Sketch 49.2 (51160) - http://www.bohemiancoding.com/sketch -->
  <title
     id="title2">Deployment</title>
  <desc
     id="desc4">Created with Sketch.</desc>
  <g
     id="deploy-16px"
     transform="matrix(1,0,0,1.0870684,-0.01562501,-1.1453961)"
     style="fill:none;fill-rule:evenodd;stroke:none;stroke-width:1">
    <g
       id="Group-2"
       transform="translate(3.46875,1.03125)"
       style="fill:#689bff">
      <path
         d="m 2.6390342,13.553905 0.4117934,-0.99833 h 2.9920948 l 0.4117934,0.99833 z M 4.5625,6.75 c -0.5522848,0 -1,-0.4477153 -1,-1 0,-0.5522848 0.4477152,-1 1,-1 0.5522847,0 1,0.4477152 1,1 0,0.5522847 -0.4477153,1 -1,1 z M 2.5062135,12.68349 C 2.2581188,12.76501 2.0755179,12.848643 1.9605248,12.931829 1.7701672,13.069534 1.2642051,13.557184 0.46361248,14.377536 L 0.10900849,14.740891 0.0741013,14.234381 C -0.02569397,12.786331 0.01858248,11.778019 0.21508705,11.192592 0.40674634,10.621601 0.91946062,9.9224172 1.7532891,9.0817136 1.6637324,8.4059552 1.6164053,7.6900482 1.6164053,6.9550825 c 0,-1.666792 0.510884,-3.3131011 1.3582709,-4.8509282 C 3.2757767,1.5577208 3.6014151,1.060491 3.918847,0.63995242 4.0382665,0.48174373 4.1501239,0.34326843 4.242854,0.23686023 4.2826718,0.19116916 4.3175483,0.15306633 4.3450317,0.1251428 4.4561016,0.01229388 4.4441377,0.02265531 4.546875,0.02265531 c 0.1027373,0 0.090773,-0.01036143 0.2018433,0.10248749 0.027483,0.0279235 0.06236,0.0660264 0.1021777,0.11171743 0.09273,0.1064082 0.2045875,0.2448835 0.324007,0.40309219 0.3174319,0.42053858 0.6430703,0.91776838 0.9441708,1.46420188 0.847387,1.5378271 1.3582709,3.1841362 1.3582709,4.8509282 0,0.7348997 -0.047314,1.4508134 -0.136878,2.1266369 0.833825,0.840701 1.3465374,1.5398826 1.5381963,2.1108726 0.1965045,0.585427 0.240781,1.593739 0.1409857,3.041789 l -0.034907,0.50651 -0.354604,-0.363355 C 7.8295449,13.557184 7.3235828,13.069534 7.1332252,12.931829 7.0182321,12.848643 6.8356312,12.765009 6.5875365,12.68349 l 0.5465819,1.325105 H 1.9596315 Z M 2.5994782,12.1799 C 2.2668764,11.484101 2.0079269,10.616241 1.8394791,9.6460315 1.1914258,10.330942 0.79363243,10.897875 0.64614139,11.33728 0.49583763,11.785065 0.4445926,12.574279 0.49783332,13.693708 1.1128126,13.071778 1.5073183,12.698491 1.6940225,12.563429 1.8902951,12.421444 2.1906203,12.29541 2.5994782,12.1799 Z M 7.2542769,9.6460379 C 7.0858646,10.616037 6.8269525,11.483884 6.4942626,12.179898 c 0.4088626,0.11551 0.7091909,0.241545 0.9054649,0.383531 0.1867042,0.135062 0.5812099,0.508349 1.1961892,1.130279 0.053241,-1.119429 0.002,-1.908643 -0.1483081,-2.356428 C 8.300118,10.897876 7.9023267,10.330945 7.2542769,9.6460379 Z M 6.3152337,11.4375 H 2.7784902 c 0.089072,0.237703 0.18554,0.45959 0.2888106,0.663385 H 6.0264353 C 6.1297141,11.897038 6.2261755,11.675153 6.3152337,11.4375 Z M 6.4750189,10.96875 C 6.823627,9.842817 7.0226553,8.4410551 7.0226553,6.9550825 7.0226553,5.3739437 6.5340265,3.799351 5.7208409,2.3235921 5.4305675,1.7968076 5.1167677,1.3176546 4.8119933,0.91388482 4.7153647,0.7858698 4.624568,0.67223865 4.546875,0.5806889 4.469182,0.67223865 4.3783853,0.7858698 4.2817567,0.91388482 3.9769823,1.3176546 3.6631825,1.7968076 3.3729091,2.3235921 2.5597235,3.799351 2.0710947,5.3739437 2.0710947,6.9550825 c 0,1.4863581 0.1991709,2.8881423 0.5476219,4.0136675 z"
         id="Combined-Shape"
         inkscape:connector-curvature="0" />
    </g>
  </g>
  <defs
     id="defs6" />
</svg>
